X:1
T:Der Letzte Tag
T:Der Letzte Tag
T:Peter Fox
C:Peter Fox
Z:All Rights Reserved
L:1/8
M:4/4
K:Eb
V:1 treble 
%%MIDI program 0
V:1
 BG | D3 F DFDF | G6 BG | DFDF D2 DF | G6 BG |[K:Ab] B,CDE .F2 F2- | FEDC B,G, B,2 | %7
 B,CDE .F2 F2- | FEDC E4 |] %9

